svgs/thin/cat-space.svg

<svg xmlns="http://www.w3.org/2000/svg" viewBox="0 0 640 512"><!--! Font Awesome Pro 6.0.0-alpha3 by @fontawesome - https://fontawesome.com License - https://fontawesome.com/license (Commercial License) --><path d="M440 144c-8.875 0-16.01 7.125-16.01 15.1s7.12 16 15.1 16S456 168.9 456 160S448.9 144 440 144zM503.1 160c0 8.875 7.12 16 15.1 16S536 168.9 536 160s-7.125-16-16-16S503.1 151.1 503.1 160zM480 .0003c-88.37 0-160 71.63-160 159.1c0 5.48 1.074 10.66 1.613 16H296c-82.5 0-153.5 50.22-184 121.7V200c0-57.34-46.66-104-104-104c-4.422 0-8 3.578-8 8s3.578 8 8 8c48.53 0 88 39.47 88 88v224c0 48.53 39.47 87.1 88 87.1h176c4.422 0 8-3.578 8-7.1v-32c0-22.06-17.94-40-40-40H307.1L408 366.7v113.3c0 17.64 14.36 31.1 32 31.1h32c17.64 0 32-14.36 32-31.1V317.6C580.9 305.9 640 240.1 640 160C640 71.64 568.4 .0003 480 .0003zM480 16c30.54 0 58.77 9.699 82.09 25.97l-55.1 54.03h-52.19l-55.1-54.03C421.2 25.7 449.5 16 480 16zM560 66.22l-.0146 109.8c0 44.11-35.88 79.1-79.99 79.1s-80-35.89-80-79.1V66.22l45.11 43.53c1.5 1.453 3.484 2.25 5.562 2.25h58.66c2.078 0 4.062-.7969 5.562-2.25L560 66.22zM488 480c0 8.828-7.172 16-16 16h-32c-8.828 0-16-7.172-16-16v-128c0-6.357-7.033-10.13-12.34-6.719L288 425.3v-9.295c0-52.94-43.06-96-96-96c-4.422 0-8 3.578-8 8s3.578 8 8 8c44.11 0 80 35.89 80 80v24c0 4.418 3.582 8 8 8h48c13.23 0 24 10.77 24 24l0 24.01L184 496c-39.7 0-72-32.3-72-72v-48c0-101.5 82.55-184 184-184h27.22C338.1 265 402.6 320 480 320c2.74 0 5.293-.6696 8-.8063V480zM480 304c-79.4 0-144-64.6-144-144c0-42.39 18.75-80.17 48-106.5v122.5c0 52.94 43.06 96 96 96s96-43.06 96-96V53.46c29.25 26.38 48 64.15 48 106.5C624 239.4 559.4 304 480 304zM168 72h48v48c0 4.422 3.571 7.1 7.993 7.1S232 124.4 232 120v-48h48c4.422 0 7.993-3.579 7.993-8S284.4 56 280 56h-48v-48c0-4.422-3.585-8-8.007-8S216 3.579 216 8.001v48h-48c-4.422 0-8.007 3.578-8.007 7.1S163.6 72 168 72z"/></svg>

<svg xmlns="http://www.w3.org/2000/svg" viewBox="0 0 640 512"><!-- Font Awesome Pro 6.0.0-alpha2 by @fontawesome - https://fontawesome.com License - https://fontawesome.com/license (Commercial License) --><path d="M440 144.001C431.125 144.001 424 151.126 424 160.001S431.125 176.001 440 176.001S456 168.876 456 160.001S448.875 144.001 440 144.001ZM504 160.001C504 168.876 511.125 176.001 520 176.001S536 168.876 536 160.001S528.875 144.001 520 144.001S504 151.126 504 160.001ZM480 0.001C391.635 0.001 320 71.635 320 160.001C320 165.481 321.074 170.661 321.613 176.001H296C213.5 176.001 142.533 226.223 112 297.69V200.001C112 142.657 65.344 96.001 8 96.001C3.578 96.001 0 99.579 0 104.001S3.578 112.001 8 112.001C56.531 112.001 96 151.469 96 200.001V424.001C96 472.532 135.469 512.001 184 512.001H360C364.422 512.001 368 508.422 368 504.001V472.001C368 449.938 350.062 432.001 328 432.001H307.094L408 366.704V480.001C408 497.641 422.359 512.001 440 512.001H472C489.641 512.001 504 497.641 504 480.001V317.583C580.891 305.924 640 240.145 640 160.001C640 71.635 568.365 0.001 480 0.001ZM480 16.001C510.537 16.001 538.766 25.7 562.09 41.975L506.094 96.001H453.906L397.91 41.975C421.234 25.7 449.463 16.001 480 16.001ZM560 66.219V176.001C560 220.11 524.109 256.001 480 256.001S400 220.11 400 176.001V66.219L445.109 109.751C446.609 111.204 448.594 112.001 450.672 112.001H509.328C511.406 112.001 513.391 111.204 514.891 109.751L560 66.219ZM488 480.001C488 488.829 480.828 496.001 472 496.001H440C431.172 496.001 424 488.829 424 480.001V352.001C424 345.643 416.967 341.868 411.656 345.282L288 425.296V416.001C288 363.063 244.938 320.001 192 320.001C187.578 320.001 184 323.579 184 328.001S187.578 336.001 192 336.001C236.109 336.001 272 371.891 272 416.001V440.001C272 444.419 275.582 448.001 280 448.001H328C341.234 448.001 352 458.766 352 472.001V496.001H184C144.297 496.001 112 463.704 112 424.001V376.001C112 274.547 194.547 192.001 296 192.001H323.225C338.053 265.03 402.596 320.001 480 320.001C482.74 320.001 485.293 319.331 488 319.194V480.001ZM480 304.001C400.598 304.001 336 239.403 336 160.001C336 117.61 354.754 79.833 384 53.458V176.001C384 228.938 427.062 272.001 480 272.001S576 228.938 576 176.001V53.458C605.246 79.833 624 117.61 624 160.001C624 239.403 559.402 304.001 480 304.001ZM168 72.001H216V120.001C216 124.422 219.578 128.001 224 128.001S232 124.422 232 120.001V72.001H280C284.422 72.001 288 68.422 288 64.001S284.422 56.001 280 56.001H232V8.001C232 3.579 228.422 0.001 224 0.001S216 3.579 216 8.001V56.001H168C163.578 56.001 160 59.579 160 64.001S163.578 72.001 168 72.001Z"/></svg>
